X: 71
T: Halsway Sicilian
M:6/8
R:jig
L:1/8
Z:Alf Warnock - alf.warnock@rogers.com
K:D
E|"D"F3 A2G|FGF "A"E3| "D"F2A d2c|"G"BcB "D"A3|
"G"G2B A2G|"D"F2A d2f|"E7"efe dcB|"A"ABA GFE|
"D"F3 A2G|FGF "A"E3| "D"F2A d2c|"G"BcB "D"A3|
"G"G2B A2G|"D"F2E D2F|"Em"EFG "A"F2E|"D"D3-D2A||
"Bm"d3 "E7"fed|"A"c2d e2A|"G"Bcd c2B|"D"A3-A2A|
"G"B3 dcB|"D"A2d f2a|"G"agf "Em"fed|"A"e3-e2A|
"D"d3 fed|"A"c2B A2A|"G"B3 dcB|"D"A3-A2F|
"Em"G3 "A"BAG|"D"F2A "Bm"d2D|"Em"EFG "A"F2E|"D"D6|]


